src/bright/hiso font bright_p4-mail.svg

<svg xmlns="http://www.w3.org/2000/svg" width="99" height="126" viewBox="0 0 99 126"><path fill="#000101" d="M0 49.5v54l27 13.5 54-27v-54l-27-13.5-54 27zm30 21.412l14.69 9.358-14.69 20.67v-30.028zm48-22.051l-23.021 33.309-24.979-15.99v-1.33l48-24v8.011zm0 29.349l-10.79-6.55 10.79-15.709v22.259zm-48 33.94v-4.331l18.05-25.369 8 5.169 8.86-12.68 13.09 7.931v5.28l-48 24z"/><text transform="translate(-234 -18)" fill="#F80071" font-family="'MyriadPro-Regular'" font-size="72">Private Use</text></svg>

<svg xmlns="http://www.w3.org/2000/svg" width="99" height="126"><path fill="#000101" d="M0 49.5v54L27 117l54-27V36L54 22.5l-54 27zm30 21.412l14.69 9.358L30 100.94V70.912zm48-22.051L54.979 82.17 30 66.18v-1.33l48-24v8.011zm0 29.349l-10.79-6.55L78 55.951V78.21zm-48 33.94v-4.331L48.05 82.45l8 5.169 8.86-12.68L78 82.87v5.28l-48 24z"/><text transform="translate(-234 -18)" fill="#F80071" font-family="'MyriadPro-Regular'" font-size="72">Private Use</text></svg>
